X: 13987
T: Frank Cassidy's
R: hornpipe
M: 4/4
K: Gmajor
dc|:(3BdB GB ADFA|GB (3def gdBG|FGAB cBcf|edcB Aedc|
(3BdB GB ADFA|GB (3def gdBG|FGAB cedc|1 (3BdB GF Gedc:|2 (3BdB GF GABc||
|:dgfg dgfg|dgfg edBG|FGAB cBcf|edcB Aedc|
BDGB ADFA|GB (3def gdBG|FGAB cedc|1 (3BdB GF GABc:|2 (3BdB GF Gedc||

